X:1
T: O'Sullivan's March
C:
R:Jig
Q:180
K:D
M:6/8
L:1/16
d2|A2F2F2 D2F2F2|A2G2F2 G4B2|A2F2F2 D2F2D2|E2D2D2 D2d2B2|A2F2F2 D2F2G2|A2G2F2 G4B2|A2F2A2 d2A2F2|E2D2D2 D4d2|
A2F2F2 D2F2F2|A2G2F2 G4B2|A2F2F2 D2F2D2|E2D2D2 D2d2B2|A2F2F2 D2F2G2|A2G2F2 G4B2|A2F2A2 d2A2F2|E2D2D2 D4d2|
B2A2d2 B2A2d2|Bcd2c2 B2A2F2|A2F2d2 A2F2d2|A2F2d2 A2B2c2|d6 f2d2B2|A2G2F2 G4B2|A2F2A2 d2A2F2|E2D2D2 D4d2|
B2A2d2 B2A2d2|Bcd2c2 B2A2F2|A2F2d2 A2F2d2|A2F2d2 A2B2c2|d6 f2d2B2|A2G2F2 G4B2|A2F2A2 d2A2F2|E2D2D2 D4||
